symbols/web/wifi_calling_1/materialsymbolsoutlined/wifi_calling_1_wght100fill1_40px.svg

<svg xmlns="http://www.w3.org/2000/svg" height="40" width="40"><path d="M27.5 19.167q-.458 0-.812-.355-.355-.354-.355-.812 0-.5.355-.833.354-.334.812-.334.458 0 .812.334.355.333.355.833 0 .458-.355.812-.354.355-.812.355Zm-4.125-4.5-.667-.792q1.042-.833 2.25-1.312 1.209-.48 2.542-.48 1.333 0 2.542.48 1.208.479 2.25 1.312l-.667.792q-.917-.709-1.979-1.084-1.063-.375-2.146-.375t-2.146.375q-1.062.375-1.979 1.084Zm-3.417-3.542-.791-.75q1.708-1.583 3.854-2.396 2.146-.812 4.479-.812t4.479.812q2.146.813 3.854 2.396l-.791.75q-1.584-1.375-3.521-2.104-1.938-.729-4.021-.729t-4.021.729q-1.937.729-3.521 2.104Zm11 21.458q-3.958 0-8.187-2.187-4.229-2.188-7.667-5.625-3.437-3.438-5.646-7.646Q7.25 12.917 7.25 8.958q0-.75.521-1.27.521-.521 1.271-.521h3.125q.75 0 1.271.437.52.438.687 1.188l.792 3.291q.125.667-.042 1.209-.167.541-.583.875l-3.542 3.25q2.458 4.083 5.375 6.979t6.917 5.062l3.458-3.583q.417-.458.896-.625.479-.167 1.062-.042l2.667.584q.75.125 1.187.666.438.542.438 1.334v3q0 .75-.521 1.27-.521.521-1.271.521Z"/></svg>

<svg xmlns="http://www.w3.org/2000/svg" height="40" width="40"><path d="M27.5 19.167Q27.042 19.167 26.688 18.812Q26.333 18.458 26.333 18Q26.333 17.5 26.688 17.167Q27.042 16.833 27.5 16.833Q27.958 16.833 28.312 17.167Q28.667 17.5 28.667 18Q28.667 18.458 28.312 18.812Q27.958 19.167 27.5 19.167ZM23.375 14.667 22.708 13.875Q23.75 13.042 24.958 12.563Q26.167 12.083 27.5 12.083Q28.833 12.083 30.042 12.563Q31.25 13.042 32.292 13.875L31.625 14.667Q30.708 13.958 29.646 13.583Q28.583 13.208 27.5 13.208Q26.417 13.208 25.354 13.583Q24.292 13.958 23.375 14.667ZM19.958 11.125 19.167 10.375Q20.875 8.792 23.021 7.979Q25.167 7.167 27.5 7.167Q29.833 7.167 31.979 7.979Q34.125 8.792 35.833 10.375L35.042 11.125Q33.458 9.75 31.521 9.021Q29.583 8.292 27.5 8.292Q25.417 8.292 23.479 9.021Q21.542 9.75 19.958 11.125ZM30.958 32.583Q27 32.583 22.771 30.396Q18.542 28.208 15.104 24.771Q11.667 21.333 9.458 17.125Q7.25 12.917 7.25 8.958Q7.25 8.208 7.771 7.688Q8.292 7.167 9.042 7.167H12.167Q12.917 7.167 13.438 7.604Q13.958 8.042 14.125 8.792L14.917 12.083Q15.042 12.75 14.875 13.292Q14.708 13.833 14.292 14.167L10.75 17.417Q13.208 21.5 16.125 24.396Q19.042 27.292 23.042 29.458L26.5 25.875Q26.917 25.417 27.396 25.25Q27.875 25.083 28.458 25.208L31.125 25.792Q31.875 25.917 32.312 26.458Q32.75 27 32.75 27.792V30.792Q32.75 31.542 32.229 32.062Q31.708 32.583 30.958 32.583Z"/></svg>
